!!!!SEGMENT: pl-gd--ee-1638--005-005_marenzio-luca--il-primo-libro-de-madrigali-spirituali-a-cinque-voci-il-di-che-di-pallor.krn
!!!cenid: 15xx:958
!!!COM: Marenzio, Luca
!!!COM-rismID:
!!!CDT: ~1553-1599/08/22
!!!CNT: Italian
!!!GTL: Il Primo libro de madrigali spirituali a cinque voci
!!!OTL: Il di che di pallor
!!!OMV: 005
!!!PDT: 1588
!!!AGN:
!!!SMS-siglum: PL-GD
!!!SMS-shelfmark: Ee 1638
!!!SMS-shelfwork: 005-005 G
!!!SMS-variant:
!!!SMS-altvar:
!!!NIFC-rismSourceID: 990039269
!!!NIFC-islandoraID: pl-gd:57883
!!!URL-pdf-islandora: https://repozytorium.nifc.pl/islandora/object/pl-gd%3A57883/datastream/PDF/view
!!!URL-scan: https://polish.musicsources.pl/pl/lokalizacje/galeria/klocki-introligatorskie/655 @EN{Scan on Polish Music Herritage in Open Access Website} @PL{Skany w portalu Dziedzictwo Muzyki Polskiej w otwartym dostępie}
!!!ONB-nifc: UWAGA: zbiór na stronach: Canto: s. 666-677, Alto: s. 514-525, Tenore: s. 362-373, Bassus: s. 210-221, Quinto: s. 58-69. Uwaga: utwory podzielone wg tytułów w spisach treści dostępnych na końcu każdej księgi głosowej.
**kern	**text	**kern	**text	**kern	**text	**kern	**text	**kern	**text
*part4	*part4	*part3	*part3	*part5	*part5	*part2	*part2	*part1	*part1
*staff4	*staff4	*staff3	*staff3	*staff5	*staff5	*staff2	*staff2	*staff1	*staff1
*Ibass	*	*Itenor	*	*Iempty	*	*Ialto	*	*Ivox	*
*I"BASSO	*	*I"TENORE	*	*I"QVINTO	*	*I"ALTO	*	*I"CANTO	*
*mI"Basso	*	*mI"Tenore II	*	*mI"Tenore I	*	*mI"Alto	*	*mI"Soprano	*
*I'B	*	*I'T	*	*I'Q	*	*I'A	*	*I'S	*
*clefF4	*	*clefC4	*	*clefC4	*	*clefC3	*	*clefC1	*
*	*	*mclefGv2	*	*mclefGv2	*	*mclefG2	*	*mclefG2	*
*k[b-]	*	*k[b-]	*	*k[b-]	*	*k[b-]	*	*k[b-]	*
*F:	*	*F:	*	*F:	*	*F:	*	*F:	*
*M2/1	*	*M2/1	*	*M2/1	*	*M2/1	*	*M2/1	*
*met(C|)	*	*met(C|)	*	*met(C|)	*	*met(C|)	*	*met(C|)	*
*mmet(c|)	*	*mmet(c|)	*	*mmet(c|)	*	*mmet(c|)	*	*mmet(c|)	*
=1-	=1-	=1-	=1-	=1-	=1-	=1-	=1-	=1-	=1-
!	!	!	!	!	!	!	!	!	!LO:MO:mod=Il
00r	.	1r	.	1r	.	1r	.	1d	IL
!	!	!	!LO:MO:mod=Il	!	!LO:MO:mod=Il	!	!LO:MO:mod=Il	!	!
.	.	1D	IL	1d	IL	1f	IL	1a	dì
=2-	=2-	=2-	=2-	=2-	=2-	=2-	=2-	=2-	=2-
.	.	1A	dì	1c	dì	1e	dì	2r	.
.	.	.	.	.	.	.	.	2e/	che
.	.	2r	.	2r	.	1r	.	2e/	dì
.	.	2A/	che	2c\	che	.	.	2e/	pal-
=3-	=3-	=3-	=3-	=3-	=3-	=3-	=3-	=3-	=3-
00r	.	2A/	dì	2c\	dì	0r	.	1.f	-lor
.	.	2A/	pal-	2c\	pal-	.	.	.	.
.	.	2B-\	-lor	2d\	-lor	.	.	.	.
.	.	2A/	la	2c\	la	.	.	2a\	la
=4-	=4-	=4-	=4-	=4-	=4-	=4-	=4-	=4-	=4-
.	.	2G/	fac-	4B-\	fac-	2r	.	2b-\	fac-
.	.	.	.	4G/	-cia	.	.	.	.
.	.	2F#X/	-cia	4A\	tin-	2d\	la	2a\	-cia
.	.	.	.	4D/	-ſe	.	.	.	.
*	*	*lig	*	*	*	*	*	*	*
.	.	1G	tin-	1r	.	2e-X\	fac-	2.g/	tin-
.	.	.	.	.	.	4d\	-cia	.	.
.	.	.	.	.	.	2d\	tin-	4f/	.
=5-	=5-	=5-	=5-	=5-	=5-	=5-	=5-	=5-	=5-
0r	.	1A	.	0r	.	.	.	1e	.
.	.	.	.	.	.	8c#y/	.	.	.
!	!	!	!	!	!	!LO:N:acc=#	!	!	!
.	.	.	.	.	.	8Bn/	.	.	.
.	.	.	.	.	.	2c#X/	.	.	.
*	*	*Xlig	*	*	*	*	*	*	*
.	.	1D	-ſe	.	.	1d	-ſe	1f	-ſe
=6-	=6-	=6-	=6-	=6-	=6-	=6-	=6-	=6-	=6-
*col	*	*col	*	*col	*	*col	*	*col	*
1D	E	1d	E	1A	E	1f	E	1a	E
1AA	che	1c#X	che	1A	che	1eny	che	1a	che
=7-	=7-	=7-	=7-	=7-	=7-	=7-	=7-	=7-	=7-
!	!	!	!	!LO:SIC:v:t=custos a	!	!LO:SIC:v:t=custos g	!	!	!
1D	di	1d	di	1A	di	1f#X	di	1a	di
!	!	!	!	!LO:LB:g=original	!	!LO:LB:g=original	!	!	!
0GG	bru-	0d	bru-	0G	bru-	0g	bru-	0b-	bru-
=8-	=8-	=8-	=8-	=8-	=8-	=8-	=8-	=8-	=8-
.	.	.	.	.	.	.	.	.	.
!	!	!LO:SIC:v:t=custos c	!	!	!	!	!	!LO:SIC:v:t=custos a	!
1C	-na	1cny	-na	1G	-na	1e	-na	1g	-na
*Xcol	*	*Xcol	*	*Xcol	*	*Xcol	*	*Xcol	*
!	!	!LO:LB:g=original	!	!	!	!	!	!LO:LB:g=original	!
=9-	=9-	=9-	=9-	=9-	=9-	=9-	=9-	=9-	=9-
1FF	veſ-	1c	veſ-	1F	veſ-	1.fny	ve-	1a	veſ-
0C	-ta	0c	-ta	0G	-ta	.	.	1g	-ta
.	.	.	.	.	.	4e\	.	.	.
.	.	.	.	.	.	4d\	.	.	.
=10-	=10-	=10-	=10-	=10-	=10-	=10-	=10-	=10-	=10-
.	.	.	.	.	.	1e	-ſta	2r	.
.	.	.	.	.	.	.	.	2g/	Il
1r	.	1r	.	1r	.	2r	.	1cc	ſol
.	.	.	.	.	.	2cny/	Il	.	.
=11-	=11-	=11-	=11-	=11-	=11-	=11-	=11-	=11-	=11-
0r	.	00r	.	0r	.	4f\	ſol	4a\	con-
.	.	.	.	.	.	4d\	con-	4.a\	-uer-
.	.	.	.	.	.	4.d\	-uer-	.	.
.	.	.	.	.	.	.	.	8g/	-ſe_il
.	.	.	.	.	.	.	.	4a\	bel
.	.	.	.	.	.	8c/	-ſe_il	.	.
.	.	.	.	.	.	4d\	bel	4.b-\	car-
.	.	.	.	.	.	4.e-X\	car-	.	.
.	.	.	.	.	.	.	.	8a\	-ro
.	.	.	.	.	.	.	.	4b-\	lu-
.	.	.	.	.	.	8d\	-ro	.	.
.	.	.	.	.	.	4e-\	lu-	4.cc\	-cen-
=12-	=12-	=12-	=12-	=12-	=12-	=12-	=12-	=12-	=12-
1r	.	.	.	1F	Il	1f	-cen-	.	.
.	.	.	.	.	.	.	.	8b-\	.
.	.	.	.	.	.	.	.	8a\	.
.	.	.	.	.	.	.	.	8g\	.
.	.	.	.	.	.	.	.	2a\	.
2r	.	.	.	1c	ſol	2eny\	-te	4g/	-te
.	.	.	.	.	.	.	.	4c/	Il
2C/	Il	.	.	.	.	4r	.	2g/	ſol
.	.	.	.	.	.	4e\	Il	.	.
=13-	=13-	=13-	=13-	=13-	=13-	=13-	=13-	=13-	=13-
1F	ſol	4r	.	4r	.	2a\	ſol	4r	.
.	.	4Fny/	Il	4A\	con-	.	.	4cc\	con-
!	!	!	!	!	!	!LO:SIC:v:t=custos d	!	!	!
.	.	2c\	ſol	4.A\	-uer-	2r	.	4.cc\	-uer-
!	!	!	!	!	!	!	!	!LO:SIC:v:t=custos cc	!
.	.	.	.	8G/	-ſe_il	.	.	8b-\	-ſe_il
!	!	!	!	!	!	!LO:LB:g=original	!	!LO:LB:g=original	!
4r	.	4F/	con-	4A/	bel	4r	.	4cc\	bel
4BB-/	con-	4.F/	-uer-	4.B-\	car-	4d\	con-	4.dd\	car-
4.BB-/	-uer-	.	.	.	.	4.f\	-uer-	.	.
.	.	8E/	-ſe_il	8A/	-ro	.	.	8cc\	-ro
.	.	4F/	bel	4.B-\	lu-	.	.	4dd\	lu-
!LO:SIC:v:t=custos BB	!	!	!	!	!	!	!	!	!
8AA/	-ſe_il	.	.	.	.	8f\	-ſe_il	.	.
!LO:LB:g=original	!	!	!	!	!	!	!	!	!
=14-	=14-	=14-	=14-	=14-	=14-	=14-	=14-	=14-	=14-
4BB-/	bel	4.G/	car-	.	.	4d\	bel	0g	-cen-
.	.	.	.	8A\J	.	.	.	.	.
4.C/	car-	.	.	4G/	.	4.e-X\	car-	.	.
.	.	8C/	-ro	.	.	.	.	.	.
.	.	2c\	lu-	2G/	-cen-	.	.	.	.
!LO:N:acc=#	!	!	!	!	!	!	!	!	!
8BBn/	-ro	.	.	.	.	8d\	-ro	.	.
4C/	lu-	.	.	.	.	4e-\	lu-	.	.
!	!	!LO:N:acc=#	!	!	!	!	!	!	!
1GG	-cen-	3.Bn\	-cen-	0G	-te	1d	-cen-	.	.
.	.	6A/	.	.	.	.	.	.	.
!	!	!LO:N:acc=#	!	!	!	!	!	!	!
.	.	3Bn\	.	.	.	.	.	.	.
=15-	=15-	=15-	=15-	=15-	=15-	=15-	=15-	=15-	=15-
1C	-te	1c	-te	.	.	1eny	-te	1g	-te
1r	.	0d	Sì	0B-	Sì	1r	.	0f	Sì
=16-	=16-	=16-	=16-	=16-	=16-	=16-	=16-	=16-	=16-
1BB-	Sì	.	.	.	.	00r	.	.	.
!	!LO:MO:mod=gran	!	!	!	!LO:MO:mod=gran	!	!	!	!
1.E-X	gra(n)	1.G	gran	1.B-	gra(n)	.	.	1.e-X	gran
=17-	=17-	=17-	=17-	=17-	=17-	=17-	=17-	=17-	=17-
.	.	.	.	.	.	.	.	.	.
2C/	pie-	2G/	pie-	2c\	pie-	.	.	2e-n/	pie-
!	!	!LO:SIC:v:t=custos G	!	!	!	!	!	!	!
1D	-tà	1F#X	-tà	1A	-tà	.	.	1d	-tà
!	!	!LO:LB:g=original	!	!	!	!	!	!	!
=18-	=18-	=18-	=18-	=18-	=18-	=18-	=18-	=18-	=18-
!	!	!	!	!LO:SIC:v:t=custos d	!	!	!	!	!
4GG/	del	2G/	del	4B-\	del	4r	.	4r	.
!	!	!	!	!LO:LB:g=original	!	!	!	!	!
2G\	ſuo	.	.	2d\	ſuo	4g\	del	4b-\	del
.	.	4.B-y\	ſuo	.	.	4g\	ſuo	4b-\	ſuo
4B-\	fat-	.	.	4d\	fat-	4d\	fat-	4f/	fat-
.	.	8B-\	fat-	.	.	.	.	.	.
4E-X\	-tor	4B-\	-tor	4G/	-tor	4e-X\	-tor	4g/	-tor
4BB-/	lo	4B-\	lo	4d\	lo	4f\	lo	4b-\	lo
2F\	ſtrin-	2c\	ſtrin-	2c\	ſtrin-	2f\	ſtrin-	2a\	ſtrin-
=19-	=19-	=19-	=19-	=19-	=19-	=19-	=19-	=19-	=19-
1BB-	-ſe	1d	-ſe	1B-	-ſe	1f	-ſe	1b-	-ſe
1D	La	2r	.	2r	.	2r	.	1r	.
!	!	!	!	!	!	!LO:SIC:v:t=custos c	!	!	!
.	.	1A\	La	1F/	La	1d\	La	.	.
=20-	=20-	=20-	=20-	=20-	=20-	=20-	=20-	=20-	=20-
2.AA/	ma-	.	.	.	.	.	.	00r	.
!	!	!	!	!	!	!LO:LB:g=original	!	!	!
.	.	2.A/	ma-	2.E/	ma-	2.c#X/	ma-	.	.
!LO:SIC:v:t=custos AA	!	!	!	!	!	!	!	!	!
4AA/	-dre_af-	.	.	.	.	.	.	.	.
!LO:LB:g=original	!	!	!	!	!	!	!	!	!
1.AA	-flit-	.	.	.	.	.	.	.	.
.	.	4A/	-dre_af-	4E/	-dre_af-	4c#/	-dre_af-	.	.
.	.	1E/	-flit-	1A\	-flit-	1c#\	-flit-	.	.
=21-	=21-	=21-	=21-	=21-	=21-	=21-	=21-	=21-	=21-
.	.	.	.	.	.	.	.	.	.
2BB-/	-ta_e	2D/	-ta_e	2G/	-ta_e	2d\	-ta_e	.	.
1AA	meſ-	1E	meſ-	1A	meſ-	1c#X	meſ-	.	.
=22-	=22-	=22-	=22-	=22-	=22-	=22-	=22-	=22-	=22-
1AA	-ta	1E	-ta	0A	-ta	1c#y	-ta	2r	.
.	.	.	.	.	.	.	.	4a\	Ch'a
!	!	!	!	!	!	!	!	!LO:SIC:v:t=custos f	!
.	.	.	.	.	.	.	.	4g/	l'hor-
!	!	!	!	!	!	!	!	!LO:LB:g=original	!
4D/	Ch'a	4Fny/	Ch'à	.	.	1r	.	2f/	-ren-
4Eny\	l'hor-	4G/	l'hor-	.	.	.	.	.	.
!	!LO:MO:mod=-ren-	!	!	!	!	!	!	!	!
2F\	-re(n)-	2A/	-ren-	.	.	.	.	4f/	-do
.	.	.	.	.	.	.	.	4g/	ſpet-
=23-	=23-	=23-	=23-	=23-	=23-	=23-	=23-	=23-	=23-
4D/	-do	4f\	-do	1r	.	4d\	ch'a	4.a\	-ta-
4C/	ſpet-	4e\	ſpet-	.	.	4eny\	l'hor-	.	.
.	.	.	.	.	.	.	.	8a\	-co-
4.BB-/	-ta-	4.d\	-ta-	.	.	2f\	-ren-	2b-\	-lo
!	!	!LO:SIC:v:t=custos a	!	!	!	!	!	!	!
8BB-/	-co-	8d\	-co-	.	.	.	.	.	.
!	!	!LO:LB:g=original	!	!	!	!	!	!	!
4BB-/	-lo	4B-\	-lo	2r	.	4d\	-do	2f/	pre-
4AA/	pre-	4c\	pre-	.	.	4cny/	ſpet-	.	.
2GG/	-ſen-	4d\	-ſen-	4D/	Ch'à	4.B-y/	-ta-	2g/	-ſen-
.	.	4G/	-te	4E/	l'hor-	.	.	.	.
.	.	.	.	.	.	8B-/	-co-	.	.
=24-	=24-	=24-	=24-	=24-	=24-	=24-	=24-	=24-	=24-
2FF/	-te	1r	.	2F/	-ren-	4A/	-lo	2c/	-te
.	.	.	.	.	.	4a\	pre-	.	.
4F\	Ch'a	.	.	4A\	-do	2f\	-ſen-	4cc\	Ch'a
4G\	l'hor-	.	.	4B-\	ſpet-	.	.	4b-\	l'hor-
2A\	-re(n)-	2r	.	4.c\	-ta-	2e\	-te	2a\	-ren-
!	!	!	!	!LO:SIC:v:t=custos c	!	!	!	!	!
.	.	.	.	8c\	-co-	.	.	.	.
*	*	*	*	*	*	*	*ij	*	*
!	!	!	!	!LO:LB:g=original	!	!	!	!	!
4F\	-do	4A/	Ch'à	4c\	-lo	4f\	ch'a	4a\	-do
4E\	ſpet-	4c\	l'hor-	4G/	pre-	4g\	l'hor-	4g/	ſpet-
=25-	=25-	=25-	=25-	=25-	=25-	=25-	=25-	=25-	=25-
!	!	!	!	!	!	!LO:SIC:v:t=custos f	!	!	!
4.D/	-ta-	2F/	-ren-	2.d\	-ſen-	2a\	-ren-	4.f/	-ta-
8D/	-co-	.	.	.	.	.	.	8f/	-co-
!	!	!	!	!	!	!LO:LB:g=original	!	!	!
4D/	-lo	4A/	-do	.	.	4f\	-do	4d/	-lo
!LO:SIC:v:t=custos G	!	!	!	!	!	!	!	!	!
4C/	pre-	4c\	ſpet-	4G/	-ta	4e\	spet-	4g/	pre-
!LO:LB:g=original	!	!LO:N:acc=#	!	!	!	!	!	!	!
1.G	-ſen-	4.Bn\	-tà-	1r	.	4.d\	-ta-	1.g	-ſen-
.	.	8B\	-co-	.	.	8d\	-co-	.	.
.	.	4B\	-lo	.	.	4d\	-lo	.	.
.	.	4c\	pre-	.	.	4c/	pre-	.	.
=26-	=26-	=26-	=26-	=26-	=26-	=26-	=26-	=26-	=26-
!	!	!	!	!	!	!LO:N:acc=#	!	!	!
.	.	2d\	-ſen-	1r	.	2Bn/	-sen-	.	.
2C/	-te	2e\	-te	.	.	2c/	-te	2g/	-te
*	*	*	*	*	*	*	*Xij	*	*
1.F	Vi-	1r	.	1c	Vi-	2r	.	1.a	vi-
.	.	.	.	.	.	1c\	vi-	.	.
=27-	=27-	=27-	=27-	=27-	=27-	=27-	=27-	=27-	=27-
.	.	00r	.	1f	-de'l	.	.	.	.
!	!	!	!	!	!	!	!	!LO:SIC:v:t=custos b	!
2BB-/	-de'l	.	.	.	.	2d\	-de'l	2b-\	-de_il
!	!	!	!	!	!	!	!	!LO:LB:g=original	!
1BB-	fi-	.	.	1d	fi-	1f	fi-	1b-	fi-
=28-	=28-	=28-	=28-	=28-	=28-	=28-	=28-	=28-	=28-
2C/	-glio_in-	.	.	2c\	-glio_in-	2e\	-glio_in-	2g/	-glio_in-
2C/	-no-	.	.	2c\	-no-	2e\	-no-	2g/	-no-
1D	-cen-	.	.	1A	-cen-	1d	-cen-	1f#X	-cen-
=29-	=29-	=29-	=29-	=29-	=29-	=29-	=29-	=29-	=29-
2D/	-te	4r	.	2A\	-te	2d\	-te	2f#n/	-te
.	.	2d\	Da	.	.	.	.	.	.
!	!	!	!	!LO:N:acc=#	!	!	!	!	!
2G\	Da	.	.	2Bn\	Da	4r	.	2g/	Dal-
.	.	2G/	le	.	.	4d\	Da	.	.
2C/	le	.	.	2c\	le	2e\	le	2g/	-le
.	.	2c\	ma-	.	.	.	.	.	.
2F\	ma-	.	.	2A/	ma-	2f\	ma-	2a\	ma-
!	!	!LO:SIC:v:t=custos D	!	!	!	!	!	!	!
.	.	2F/	-ni	.	.	.	.	.	.
=30-	=30-	=30-	=30-	=30-	=30-	=30-	=30-	=30-	=30-
!	!	!	!	!	!	!LO:SIC:v:t=custos g	!	!	!
2BB-/	-ni	.	.	2.d\	-ni	2f\	-ni	2b-\	-ni
!	!	!LO:LB:g=original	!	!	!	!	!	!	!
.	.	2D/	da'	.	.	.	.	.	.
!	!	!	!	!	!	!LO:LB:g=original	!	!	!
2GG/	da'	.	.	.	.	2g\	da'	2b-\	da'
.	.	2d\	pie-	4G/	da'	.	.	.	.
2D/	pie-	.	.	2A/	pie-	2f\	pie-	2a\	pie-
.	.	4A/	-di_e	.	.	.	.	.	.
2AA/	-di_e	4.A/	da	2c\	-di_e	2e\	-di_e	2a\	-di_e
.	.	8G/	la	.	.	.	.	.	.
=31-	=31-	=31-	=31-	=31-	=31-	=31-	=31-	=31-	=31-
!	!	!	!	!LO:SIC:v:t=custos A	!	!	!	!	!
2BB-/	da	2F/	fron-	2B-y\	da-	2d\	da	4dd\	da
.	.	.	.	.	.	.	.	4d/	la
!	!	!	!	!LO:LB:g=original	!	!	!	!	!
2FF/	la	4F/	.	2A/	-la	2c/	la	2.fny/	fron-
.	.	2c\	.	.	.	.	.	.	.
1C	fron-	.	.	1G	fron-	1c	fron-	.	.
.	.	8B-\	.	.	.	.	.	8eny/	.
.	.	8A\	.	.	.	.	.	8d/	.
.	.	2G/	.	.	.	.	.	2e/	.
=32-	=32-	=32-	=32-	=32-	=32-	=32-	=32-	=32-	=32-
2FF/	-te	2A/	-te	2F/	-te	1c	-te	2f/	-te
!LO:SIC:v:t=custos F	!	!	!	!	!	!	!	!	!
2F\	Ver-	4r	.	4r	.	.	.	2a\	Ver-
.	.	4F/	Ver-	4c\	Ver	.	.	.	.
!LO:LB:g=original	!	!	!	!	!	!	!	!	!
4F\	-ſar	2A/	-ſar	2c\	ſar	2r	.	4a\	-ſar
4E\	.	.	.	.	.	.	.	4g/	.
4D/	.	2A/	ver-	2.d\	ver	2F/	Ver	4f/	.
!	!	!	!	!	!	!	!	!LO:SIC:v:t=custos d	!
4C/	.	.	.	.	.	.	.	4e/	.
!	!	!	!	!	!	!	!	!LO:LB:g=original	!
=33-	=33-	=33-	=33-	=33-	=33-	=33-	=33-	=33-	=33-
2BB-/	.	1.B-	-mi-	.	.	4f\	ſar	2d/	.
.	.	.	.	4e\	.	4e\	.	.	.
2B-\	ver-	.	.	2f\	.	4d\	.	2dd\	ver-
.	.	.	.	.	.	4c/	.	.	.
2G\	-mi-	.	.	4g\	mi-	4B-y/	.	2.dd\	-mi-
.	.	.	.	4G/	-glio	4d\	ver-	.	.
2D/	-glio	2A/	-glio	2.d\	fon-	4f\	-mi-	.	.
.	.	.	.	.	.	4f\	-glio	4a\	-glio
=34-	=34-	=34-	=34-	=34-	=34-	=34-	=34-	=34-	=34-
1A	fon-	1A	fon-	.	.	1e	fon-	1a	fon-
.	.	.	.	8c#y\	.	.	.	.	.
!	!	!	!	!LO:N:acc=#	!	!	!	!	!
.	.	.	.	8Bn\	.	.	.	.	.
.	.	.	.	2c#X\	.	.	.	.	.
1D	-te	1A	-te	0d	-te	1f#X	-te	1a	-te
=35-	=35-	=35-	=35-	=35-	=35-	=35-	=35-	=35-	=35-
!	!	!LO:SIC:v:t=custos A	!	!	!	!	!	!	!
1G	Da	1B-	Da	.	.	2r	.	1g	Da
!	!	!	!	!	!	!LO:SIC:v:t=custos d	!	!	!
.	.	.	.	.	.	2d\	Da	.	.
!	!	!LO:LB:g=original	!	!	!	!LO:LB:g=original	!	!	!
1F#X	fer-	1A	fer-	1r	.	1d	fer-	1a	fer-
=36-	=36-	=36-	=36-	=36-	=36-	=36-	=36-	=36-	=36-
1G	-ro	1B-	-ro	2r	.	1d	-ro	1g	-ro
.	.	.	.	4d\	di	.	.	.	.
.	.	.	.	4e\	ſo-	.	.	.	.
4D/	di	4F/	di	2f\	-uer	2r	.	2r	.
4E\	ſo-	4G/	ſo-	.	.	.	.	.	.
1Fny\	-uer-	1A\	-uer	2cny\	chio	4fny\	di	4a\	di
.	.	.	.	.	.	4g\	ſo-	4b-\	ſo-
=37-	=37-	=37-	=37-	=37-	=37-	=37-	=37-	=37-	=37-
.	.	.	.	4r	.	2a\	-uer-	2cc\	-uer
!	!	!	!	!LO:SIC:v:t=custos f	!	!	!	!	!
.	.	.	.	2f\	al-	.	.	.	.
2.B-\	-chio_al-	2.d\	chio_al-	.	.	2.b-\	-chio_al-	2.dd\	chio_al-
!	!	!	!	!LO:LB:g=original	!	!	!	!	!
.	.	.	.	4f\	-to	.	.	.	.
.	.	.	.	1f	do-	.	.	.	.
4B-\	-to	4d\	-to	.	.	4b-\	-to	4dd\	-to
2BB-/	do-	2d\	do-	.	.	2f\	do-	2dd\	do-
=38-	=38-	=38-	=38-	=38-	=38-	=38-	=38-	=38-	=38-
*	*	*	*	*lig	*	*	*	*	*
2.E-X\	-lo-	4G/	-lo-	1B-y	-lo-	2.g\	-lo-	0ee-X	-lo-
.	.	4A/	.	.	.	.	.	.	.
.	.	2.B-\	.	.	.	.	.	.	.
4D/	.	.	.	.	.	4f\	.	.	.
1C	.	.	.	1c	.	4e-X\	.	.	.
.	.	8A/	.	.	.	4d\	.	.	.
.	.	8G/	.	.	.	.	.	.	.
.	.	2A/	.	.	.	2c/	.	.	.
*	*	*	*	*Xlig	*	*	*	*	*
=39-	=39-	=39-	=39-	=39-	=39-	=39-	=39-	=39-	=39-
!LO:SIC:v:t=custos F	!	!	!	!	!	!	!	!	!
1BB-	-re	1B-	-re	1d	-re	0f	-re	1dd	-re
!LO:LB:g=original	!	!	!	!	!	!	!	!	!
1F	Sen-	1c	Sen-	1A	Sen-	.	.	1r	.
=40-	=40-	=40-	=40-	=40-	=40-	=40-	=40-	=40-	=40-
1.F	-ti	2c\	-ti	2A\	-tì	2r	.	1a	Sen-
.	.	2B-\	paſ-	2d\	paſ-	2f\	Sen-	.	.
.	.	2A/	-ſar-	1c	-ſar-	1.f	-ti	0a	-ti
!	!	!LO:SIC:v:t=custos G	!	!	!	!	!	!	!
2Eny\	paſ-	2G/	-ſi_a	.	.	.	.	.	.
!	!	!LO:LB:g=original	!	!	!	!	!	!	!
=41-	=41-	=41-	=41-	=41-	=41-	=41-	=41-	=41-	=41-
2D/	-ſar-	1F	cer-	1d	-ſi	.	.	.	.
2C/	-ſi_a	.	.	.	.	2eny\	paſ-	.	.
2BB-/	cer-	1F	-ba-	1f	Sen-	2d\	-ſar-	1dd	Sen-
!	!	!	!	!	!	!LO:SIC:v:t=custos B	!	!	!
2AA/	-ba-	.	.	.	.	2c/	-ſi a	.	.
!	!	!	!	!	!	!LO:LB:g=original	!	!	!
=42-	=42-	=42-	=42-	=42-	=42-	=42-	=42-	=42-	=42-
!	!	!	!	!	!	!LO:N:acc=#	!	!	!
0.GG	-men-	0G	-men-	2f\	-tì	2Bn/	cer-	2dd\	-ti
!	!	!	!	!	!	!	!	!LO:SIC:v:t=custos b	!
.	.	.	.	2e\	paſ-	2c/	-ba-	2cc\	paſ-
!	!	!	!	!	!	!	!	!LO:LB:g=original	!
.	.	.	.	2d\	-ſar-	1d	-men-	2b-\	-ſar-
.	.	.	.	2c\	-ſi_a	.	.	2a\	-ſi_a
=43-	=43-	=43-	=43-	=43-	=43-	=43-	=43-	=43-	=43-
.	.	1.G	-te_il	1.B-	cer-	1d	-te_il	2g/	cer-
.	.	.	.	.	.	.	.	2f/	-ba-
0C	-te_il	.	.	.	.	0c	co-	2e/	-men-
.	.	2.c\	co-	2A/	-ba-	.	.	1f/	-te_il
=44-	=44-	=44-	=44-	=44-	=44-	=44-	=44-	=44-	=44-
.	.	.	.	1G	-men-	.	.	.	.
.	.	8B-\	.	.	.	.	.	.	.
.	.	8A\	.	.	.	.	.	.	.
.	.	2G/	.	.	.	.	.	2.e/	co-
2.FF/	co-	2c\	-re	1F	-te_il	2A/	-re	.	.
.	.	.	.	.	.	.	.	4d/	.
.	.	2A/	il	.	.	2a\	il	1d/	.
4GG/	.	.	.	.	.	.	.	.	.
=45-	=45-	=45-	=45-	=45-	=45-	=45-	=45-	=45-	=45-
0AA	.	0A	co-	0E	co-	2.a\	co-	.	.
.	.	.	.	.	.	.	.	4c#X/	.
!	!	!	!	!	!	!	!	!LO:N:acc=#	!
.	.	.	.	.	.	8g\	.	4Bn/	.
.	.	.	.	.	.	8f\	.	.	.
.	.	.	.	.	.	1e	.	1c#X	.
=46-	=46-	=46-	=46-	=46-	=46-	=46-	=46-	=46-	=46-
0Dl	-re.	0Al	-re	0Dl	-re.	0f#Xl	-re	0dl	-re.
==	==	==	==	==	==	==	==	==	==
*-	*-	*-	*-	*-	*-	*-	*-	*-	*-
!!!system-decoration: [(*)]
!!!RDF**kern: l = terminal long
!!!filter-modern: sic -sq | humtr -p |tie -s | autostem -r | shed -e "s/-//B" | modori -m 
!!!ENC: Andrzej Gręziak
!!!END: 2022-06-29
!!!AIN: 1 alto 1 bass 1 empty 1 tenor 1 vox
!!!ENC: Andrzej Borzym
!!!END: 2022-07-15
!!!ENC-modern: Leszek Kubiak
!!!END-modern: 2022-08-05
